src/public/key.svg

<svg width="22" height="22" viewBox="0 0 22 22" fill="none" xmlns="http://www.w3.org/2000/svg">
<path d="M1 17.0382V20.0382C1 20.6382 1.4 21.0382 2 21.0382H6V18.0382H9V15.0382H11L12.4 13.6382C13.7898 14.1224 15.3028 14.1205 16.6915 13.633C18.0801 13.1455 19.2622 12.2011 20.0444 10.9544C20.8265 9.70766 21.1624 8.23242 20.9971 6.76998C20.8318 5.30755 20.1751 3.9445 19.1344 2.90382C18.0937 1.86313 16.7307 1.20643 15.2683 1.04114C13.8058 0.875841 12.3306 1.21174 11.0839 1.99389C9.83716 2.77603 8.89279 3.95812 8.40525 5.34677C7.91771 6.73541 7.91585 8.24841 8.4 9.63825L1 17.0382Z" stroke="white" stroke-width="1.66667" stroke-linecap="round" stroke-linejoin="round"/>
<path d="M15.5 7.03827C15.7761 7.03827 16 6.81441 16 6.53827C16 6.26213 15.7761 6.03827 15.5 6.03827C15.2239 6.03827 15 6.26213 15 6.53827C15 6.81441 15.2239 7.03827 15.5 7.03827Z" fill="white" stroke="white" stroke-width="1.66667" stroke-linecap="round" stroke-linejoin="round"/>
</svg>

<svg xmlns="http://www.w3.org/2000/svg" width="22" height="22" fill="none" stroke="#fff" stroke-width="1.667" stroke-linejoin="round" xmlns:v="https://vecta.io/nano"><path d="M1 17.038v3a.94.94 0 0 0 1 1h4v-3h3v-3h2l1.4-1.4a6.5 6.5 0 0 0 7.644-2.684 6.5 6.5 0 0 0-.91-8.051 6.5 6.5 0 0 0-8.05-.91A6.5 6.5 0 0 0 8.4 9.638l-7.4 7.4z"/><path d="M15.5 7.038a.5.5 0 1 0 0-1 .5.5 0 1 0 0 1z" fill="#fff"/></svg>
